brandFactory_export/1.Light/Gasolina_1Light.svg

<?xml version="1.0" encoding="UTF-8"?>
<svg width="24px" height="24px" viewBox="0 0 24 24" version="1.1" xmlns="http://www.w3.org/2000/svg" xmlns:xlink="http://www.w3.org/1999/xlink">
    <title>1.Light/Gasolina_1Light</title>
    <g id="Symbols" stroke="none" stroke-width="1" fill="none" fill-rule="evenodd">
        <g id="1.Light/Gasolina_1Light" fill="#5CB615" fill-rule="nonzero">
            <path d="M20.5243697,9.91932773 C21.4823529,9.89915966 22.6252101,9.50252101 22.6252101,7.70084034 C22.6252101,5.89915966 21.4722689,5.49243697 20.507563,5.46890756 L20.2823529,5.46554622 L20.2352941,5.46554622 C19.2907563,5.47563025 18.1647059,5.86554622 18.1647059,7.68067227 C18.1647059,9.50588235 19.3042017,9.90252101 20.2621849,9.91596639 L20.5243697,9.91932773 L20.5243697,9.91932773 Z M13.2470588,22.1815126 L13.2470588,1.46554622 C13.2470588,1.25714286 12.9815126,1.00840336 12.7563025,1.00840336 L1.4789916,1.00840336 C1.25378151,1.00840336 0.988235294,1.25378151 0.988235294,1.46554622 L0.988235294,22.1815126 C0.988235294,22.410084 1.23697479,22.6386555 1.4789916,22.6386555 L12.7563025,22.6420168 C12.9983193,22.6386555 13.2470588,22.410084 13.2470588,22.1815126 Z M23.6134454,7.77142857 L23.6235294,20.4268908 C23.6235294,22.7428571 21.9663866,23.5966387 20.5478992,23.6201681 L20.3764706,23.6235294 L20.2722689,23.6235294 C18.7932773,23.6033613 17.2033613,22.7462185 17.2033613,20.410084 L17.2033613,15.6672269 C17.2,14.4907563 16.2453782,13.5394958 15.0689076,13.5428571 L14.2319328,13.5428571 L14.2319328,22.1848739 C14.2319328,22.9512605 13.5428571,23.6268908 12.7563025,23.6268908 L1.4789916,23.6268908 C0.692436975,23.6268908 0,22.9512605 0,22.1848739 L0,1.46554622 C0,0.709243697 0.705882353,0.0235294118 1.4789916,0.0235294118 L12.7563025,0.0235294118 C13.5294118,0.0235294118 14.2352941,0.709243697 14.2352941,1.46554622 L14.2352941,12.5546218 L15.0722689,12.5546218 C16.7932773,12.5546218 18.1882353,13.9462185 18.1915966,15.6672269 L18.1915966,20.410084 C18.1915966,22.3932773 19.6638655,22.6285714 20.2991597,22.6386555 L20.5310924,22.6386555 C21.1663866,22.6252101 22.6386555,22.3865546 22.6386555,20.4268908 L22.6319328,10.1680672 C21.8756303,10.8134454 20.897479,10.897479 20.5411765,10.9042017 L20.2453782,10.9042017 C19.6,10.8941176 17.1731092,10.6621849 17.1731092,7.68403361 C17.1731092,4.7092437 19.5731092,4.48739496 20.2218487,4.48067227 L20.2789916,4.48067227 L20.4672269,4.48403361 L16.8168067,0.840336134 C16.6252101,0.648739496 16.6252101,0.336134454 16.8168067,0.144537815 C17.0084034,-0.0470588235 17.3210084,-0.0470588235 17.512605,0.144537815 L22.4638655,5.08571429 C22.4773109,5.09579832 22.4806723,5.11260504 22.4907563,5.12268908 C23.102521,5.57983193 23.610084,6.35966387 23.610084,7.70084034 L23.6067227,7.73445378 C23.610084,7.74789916 23.6134454,7.75798319 23.6134454,7.77142857 Z M10.2991597,8.08403361 L10.2991597,4.29915966 C10.2991597,4.20840336 10.2386555,4.11764706 10.205042,4.09747899 L4.13445378,4.10756303 C4.15462185,4.11764706 4.09411765,4.20504202 4.09411765,4.29915966 L4.09411765,8.08403361 C4.09411765,8.17815126 4.14117647,8.2487395 4.16806723,8.27563025 L10.2621849,8.27563025 C10.2386555,8.26554622 10.2991597,8.18823529 10.2991597,8.08403361 Z M10.2588235,3.12268908 C10.8067227,3.12268908 11.287395,3.67058824 11.287395,4.29915966 L11.287395,8.08403361 C11.287395,8.71932773 10.8168067,9.2605042 10.2588235,9.2605042 L4.13445378,9.2605042 C3.57647059,9.2605042 3.10588235,8.72268908 3.10588235,8.08403361 L3.10588235,4.29579832 C3.10588235,3.67058824 3.58655462,3.11932773 4.13445378,3.11932773 L10.2588235,3.12268908 Z" id="Gasolina_1Light"></path>
        </g>
    </g>
</svg>

<svg width="24" height="24" viewBox="0 0 24 24" xmlns="http://www.w3.org/2000/svg"><path d="M20.524 9.92c.958-.02 2.101-.417 2.101-2.22 0-1.8-1.153-2.208-2.117-2.231l-.226-.003h-.047c-.944.01-2.07.4-2.07 2.215 0 1.825 1.14 2.222 2.097 2.235l.262.003zm-7.277 12.262V1.466c0-.209-.265-.458-.49-.458H1.478c-.225 0-.49.246-.49.458v20.716c0 .228.248.457.49.457l11.277.003c.242-.003.491-.232.491-.46zm10.366-14.41l.01 12.655c0 2.316-1.657 3.17-3.075 3.193l-.172.004h-.104c-1.479-.02-3.069-.878-3.069-3.214v-4.743a2.129 2.129 0 00-2.134-2.124h-.837v8.642c0 .766-.69 1.442-1.476 1.442H1.48C.692 23.627 0 22.95 0 22.185V1.465C0 .71.706.025 1.479.025h11.277c.773 0 1.48.685 1.48 1.442v11.089h.836a3.118 3.118 0 013.12 3.112v4.743c0 1.983 1.472 2.219 2.107 2.229h.232c.635-.014 2.108-.252 2.108-2.212l-.007-10.259c-.756.645-1.735.73-2.09.736h-.297c-.645-.01-3.072-.242-3.072-3.22 0-2.975 2.4-3.197 3.049-3.203h.057l.188.003L16.817.84a.493.493 0 01.696-.695l4.95 4.94c.014.01.018.028.028.038.612.457 1.12 1.237 1.12 2.578l-.004.033c.003.014.006.024.006.037zM10.3 8.083V4.299c0-.09-.06-.181-.094-.202l-6.07.01c.02.01-.04.098-.04.192v3.785c0 .094.046.165.073.192h6.094c-.023-.01.037-.088.037-.192zm-.04-4.961c.548 0 1.028.548 1.028 1.176v3.785c0 .635-.47 1.177-1.028 1.177H4.134c-.558 0-1.028-.538-1.028-1.177V4.296c0-.625.48-1.177 1.028-1.177l6.125.004z" fill="#5CB615" fill-rule="nonzero"/></svg>
